src/icons/logos/javascript.svg

<svg width="173" height="220" viewBox="0 0 173 220" fill="none" xmlns="http://www.w3.org/2000/svg">
    <path fill-rule="evenodd" clip-rule="evenodd" d="M16.8527 35H156.388C159.277 35 161.62 37.3427 161.62 40.2326V179.767C161.62 182.657 159.277 185 156.388 185H16.8527C13.9628 185 11.6201 182.657 11.6201 179.767V40.2326C11.6201 37.3427 13.9628 35 16.8527 35ZM127.159 160.748C120.207 160.748 116.276 157.121 113.254 152.188L101.8 158.843C105.938 167.019 114.395 173.257 127.485 173.257C140.873 173.257 150.842 166.305 150.842 153.614C150.842 141.843 144.08 136.607 132.104 131.471L128.58 129.962C122.533 127.343 119.914 125.631 119.914 121.402C119.914 117.981 122.53 115.362 126.659 115.362C130.707 115.362 133.314 117.069 135.73 121.402L146.707 114.355C142.064 106.188 135.621 103.069 126.659 103.069C114.071 103.069 106.016 111.117 106.016 121.688C106.016 133.164 112.773 138.593 122.945 142.926L126.469 144.438C132.897 147.25 136.73 148.962 136.73 153.795C136.73 157.829 133 160.748 127.159 160.748ZM72.5329 160.66C67.69 160.66 65.6757 157.338 63.4614 153.41L51.9876 160.356C55.3114 167.39 61.8472 173.231 73.1329 173.231C85.6233 173.231 94.1805 166.588 94.1805 151.993V103.874H80.0852V151.802C80.0852 158.848 77.1638 160.66 72.5329 160.66Z" fill="currentColor" />
</svg>

<svg xmlns="http://www.w3.org/2000/svg" width="173" height="220" fill="none">
    <path fill="currentColor" fill-rule="evenodd"
        d="M16.853 35h139.535a5.233 5.233 0 0 1 5.232 5.233v139.534a5.233 5.233 0 0 1-5.232 5.233H16.853a5.233 5.233 0 0 1-5.233-5.233V40.233A5.233 5.233 0 0 1 16.853 35Zm110.306 125.748c-6.952 0-10.883-3.627-13.905-8.56l-11.454 6.655c4.138 8.176 12.595 14.414 25.685 14.414 13.388 0 23.357-6.952 23.357-19.643 0-11.771-6.762-17.007-18.738-22.143l-3.524-1.509c-6.047-2.619-8.666-4.331-8.666-8.56 0-3.421 2.616-6.04 6.745-6.04 4.048 0 6.655 1.707 9.071 6.04l10.977-7.047c-4.643-8.167-11.086-11.286-20.048-11.286-12.588 0-20.643 8.048-20.643 18.619 0 11.476 6.757 16.905 16.929 21.238l3.524 1.512c6.428 2.812 10.261 4.524 10.261 9.357 0 4.034-3.73 6.953-9.571 6.953Zm-54.626-.088c-4.843 0-6.857-3.322-9.072-7.25l-11.473 6.946c3.323 7.034 9.86 12.875 21.145 12.875 12.49 0 21.047-6.643 21.047-21.238v-48.119H80.085v47.928c0 7.046-2.921 8.858-7.552 8.858Z"
        clip-rule="evenodd" />
</svg>
